X: 4853
T:Garrett Barry's
M:6/8
L:1/8
C:Trad
R:Jig
K:DMix
|:DEFG2G|AGEc2c|dcAd2e|fed cAG|!
F2FG2G|AGE cde|dcA GEA|DED D3:|!
|:dcAd2e|f2fg2e|dcAc2d|~e2e e^cA|!
dcAd2e|f2fg2e|dcA GEA|DED D3:|!
